src/assets/Critical.svg

<svg width="12" height="12" viewBox="0 0 12 12" fill="none" xmlns="http://www.w3.org/2000/svg">
<path fill-rule="evenodd" clip-rule="evenodd" d="M6.49042 0.845163C6.1747 0.718279 5.82117 0.718279 5.50545 0.845163L1.64455 2.39032C1.49133 2.45144 1.36007 2.55623 1.26753 2.69129C1.175 2.82635 1.12539 2.98555 1.12506 3.14855V4.97241C1.11912 6.36932 1.56938 7.73101 2.40918 8.85595C3.24899 9.98089 4.43373 10.8093 5.78806 11.2186C5.92334 11.2605 6.06838 11.2605 6.20366 11.2186C7.55783 10.8106 8.74303 9.98388 9.58421 8.86059C10.4254 7.7373 10.8779 6.377 10.875 4.9806V3.14855C10.8763 2.98416 10.8275 2.82317 10.7348 2.68649C10.6422 2.54981 10.51 2.44377 10.3555 2.38212L6.49042 0.845163ZM5.60986 4.16266C5.60986 4.05321 5.65334 3.94826 5.73073 3.87087C5.80812 3.79348 5.91308 3.75 6.02252 3.75C6.07631 3.74999 6.12955 3.76072 6.17913 3.78156C6.22871 3.80241 6.27363 3.83295 6.31125 3.87138C6.34887 3.90982 6.37844 3.95538 6.39821 4.0054C6.41798 4.05542 6.42757 4.10889 6.4264 4.16266V6.60348C6.42757 6.65725 6.41798 6.71071 6.39821 6.76073C6.37844 6.81075 6.34887 6.85632 6.31125 6.89476C6.27363 6.93319 6.22871 6.96373 6.17913 6.98457C6.12955 7.00541 6.07631 7.01615 6.02252 7.01613C5.91308 7.01613 5.80812 6.97266 5.73073 6.89527C5.65334 6.81788 5.60986 6.71292 5.60986 6.60348V4.16266ZM6.4264 8.25411C6.4264 8.36122 6.38384 8.46394 6.3081 8.53969C6.23236 8.61543 6.12964 8.65798 6.02252 8.65798C5.91458 8.65801 5.81093 8.61574 5.73379 8.54024C5.65665 8.46474 5.61216 8.36202 5.60986 8.25411C5.61216 8.14619 5.65665 8.04347 5.73379 7.96797C5.81093 7.89247 5.91458 7.8502 6.02252 7.85022C6.12964 7.85022 6.23236 7.89278 6.3081 7.96852C6.38384 8.04426 6.4264 8.14699 6.4264 8.25411Z" fill="#B91C1C"/>
</svg>

<?xml version="1.0" encoding="utf-8"?>
<!-- Generator: Adobe Illustrator 27.0.1, SVG Export Plug-In . SVG Version: 6.00 Build 0)  -->
<svg version="1.1" id="Layer_1" xmlns="http://www.w3.org/2000/svg" xmlns:xlink="http://www.w3.org/1999/xlink" x="0px" y="0px"
	 viewBox="0 0 12 12" style="enable-background:new 0 0 12 12;" xml:space="preserve">
<style type="text/css">
	.st0{fill-rule:evenodd;clip-rule:evenodd;fill:#B91C1C;}
</style>
<path class="st0" d="M10.7,2.7c-0.1-0.1-0.2-0.2-0.4-0.3L6.5,0.8c-0.3-0.1-0.7-0.1-1,0L1.6,2.4C1.5,2.5,1.4,2.6,1.3,2.7
	S1.1,3,1.1,3.1V5c0,1.4,0.4,2.8,1.3,3.9s2,2,3.4,2.4c0.1,0,0.3,0,0.4,0c1.4-0.4,2.5-1.2,3.4-2.4s1.3-2.5,1.3-3.9V3.1
	C10.9,3,10.8,2.8,10.7,2.7z M6.3,8.5C6.2,8.6,6.1,8.7,6,8.7c-0.1,0-0.2,0-0.3-0.1C5.7,8.5,5.6,8.4,5.6,8.3c0-0.1,0-0.2,0.1-0.3
	C5.8,7.9,5.9,7.9,6,7.9c0.1,0,0.2,0,0.3,0.1s0.1,0.2,0.1,0.3S6.4,8.5,6.3,8.5z M6.4,6.6c0,0.1,0,0.1,0,0.2c0,0,0,0.1-0.1,0.1
	c0,0-0.1,0.1-0.1,0.1S6.1,7,6,7C5.9,7,5.8,7,5.7,6.9S5.6,6.7,5.6,6.6V4.2c0-0.1,0-0.2,0.1-0.3S5.9,3.8,6,3.8c0.1,0,0.1,0,0.2,0
	c0,0,0.1,0.1,0.1,0.1c0,0,0.1,0.1,0.1,0.1c0,0.1,0,0.1,0,0.2V6.6z"/>
</svg>
